src/images/icons/soc-4-dzen.svg

<svg width="40" height="40" viewBox="0 0 40 40" fill="none" xmlns="http://www.w3.org/2000/svg">
<g clip-path="url(#clip0)">
<path fill-rule="evenodd" clip-rule="evenodd" d="M39.9999 20.2399V19.9999V19.7599C31.1199 19.5199 27.1199 19.2799 23.8399 16.0799C20.7199 12.8799 20.4799 8.79992 20.1599 -0.0800781H19.9999H19.7599C19.5199 8.79992 19.2799 12.7999 16.0799 16.0799C12.8799 19.1999 8.79992 19.4399 -0.0800781 19.7599V19.9999V20.2399C8.79992 20.4799 12.7999 20.7199 16.0799 23.9199C19.1999 27.1199 19.4399 31.1999 19.7599 40.0799H19.9999H20.2399C20.4799 31.1999 20.7199 27.1999 23.9199 23.9199C27.1199 20.7199 31.1199 20.4799 39.9999 20.2399Z" fill="#003067"/>
</g>
<defs>
<clipPath id="clip0">
<rect width="40" height="40" fill="white"/>
</clipPath>
</defs>
</svg>

<svg xmlns="http://www.w3.org/2000/svg" width="40" height="40" fill="none" viewBox="0 0 40 40">
	<g clip-path="url(#soc-4-dzen-a)">
		<path fill="#003067" fill-rule="evenodd" d="M40 20.24v-.48c-8.88-.24-12.88-.48-16.16-3.68-3.12-3.2-3.36-7.28-3.68-16.16h-.4c-.24 8.88-.48 12.88-3.68 16.16-3.2 3.12-7.28 3.36-16.16 3.68v.48c8.88.24 12.88.48 16.16 3.68 3.12 3.2 3.36 7.28 3.68 16.16h.48c.24-8.88.48-12.88 3.68-16.16 3.2-3.2 7.2-3.44 16.08-3.68z" clip-rule="evenodd"/>
	</g>
	<defs>
		<clipPath id="soc-4-dzen-a">
			<path fill="#fff" d="M0 0h40v40H0z"/>
		</clipPath>
	</defs>
</svg>
